!!!SOCIAL_FUNCTION:	songs connected with ceremonies
!!!PDT:	1929
!!!OTL: No_116_Cottonwood_Leaves_Are_Falling.krn
!!!REG: Southwest
!!!LANG: Non-Tone
!!!LING_GROUP: Uto-Aztecan
**kern
*staff1
=1-
=
*clefF4
*k[b-]
*M2/4
4F\
8c\L
8c\J
=2
4c\
8G\L
8c\J
=3||
*M3/8
4c\
8G\
=4||
*M3/4
4B-\
8B-\L
8G\J
8G\
8r
=5||
*M2/4
4c\
8c\L
8A\J
=6
4G\
8F\L
8G\J
=7||
*M3/8
4F\
8D\
=8||
*M3/4
2F\
4r
=9||
*M2/4
4D\
8F\L
8F\J
=10
4A\
8G\L
8F\J
=11
4G\
8F\L
8G\J
=12
12F\L
12F\
12F\J
[4F\
=13
2F\]
=14
4F\
8F\L
8F\J
=15
4F\
8C/L
8F/J
=16
12F\L
12F\
12F\J
[4F\
=17
2F\]
==:|!
*-
